src/base/static/base/assets/include/rs-plugin/demos/assets/svg/device/ic_storage_24px.svg

<svg height="24" viewBox="0 0 24 24" width="24" xmlns="http://www.w3.org/2000/svg"><path d="m2 20h20v-4h-20zm2-3h2v2h-2zm-2-13v4h20v-4zm4 3h-2v-2h2zm-4 7h20v-4h-20zm2-3h2v2h-2z"/></svg>

<svg xmlns="http://www.w3.org/2000/svg" width="24" height="24" viewBox="0 0 24 24"><path d="M2 20h20v-4H2v4zm2-3h2v2H4v-2zM2 4v4h20V4H2zm4 3H4V5h2v2zm-4 7h20v-4H2v4zm2-3h2v2H4v-2z"/></svg>
